Origami/64x64/apps/stepmania-ssc.svg

<svg width="64" height="64" version="1.1" viewBox="0 0 48 48" xmlns="http://www.w3.org/2000/svg">
 <path d="m10.500325 3.7499993c-4.1549602 0-7.4999286 3.3449684-7.4999286 7.4999287 0 4.154961 3.3449684 7.499929 7.4999286 7.499929h8.894448l-14.191272 14.188342c-2.9380006 2.938-2.9380006 7.670297 0 10.608297 2.9380006 2.938003 7.6702974 2.938003 10.608298 0l14.18834-14.191272v8.894448c0 4.154961 3.344969 7.49993 7.49993 7.49993 4.15496 0 7.499929-3.344969 7.499929-7.49993v-26.999744c0-4.1549603-3.344969-7.4999287-7.499929-7.4999287z" style="opacity:.2"/>
 <path d="m10.500326 2.999999c-4.154961 0-7.4999294 3.3449685-7.4999294 7.499929 0 4.15496 3.3449684 7.499929 7.4999294 7.499929h8.894447l-14.191272 14.188341c-2.9380007 2.938001-2.9380007 7.670298 0 10.608299s7.6702973 2.938001 10.608298 0l14.188342-14.191273v8.894448c0 4.154961 3.344968 7.499929 7.499929 7.499929s7.499929-3.344968 7.499929-7.499929v-26.999744c0-4.1549605-3.344968-7.499929-7.499929-7.499929z" style="fill:#e7b212"/>
 <path transform="scale(.74999997)" d="m14 4c-5.5399482 0-10 4.4600524-10 10 0 0.168831 0.017202 0.333271 0.0253906 0.5 0.2605084-5.3042532 4.6034921-9.5 9.9746094-9.5h36c5.539948 0 10 4.4600528 10 10v-1c0-5.5399476-4.460052-10-10-10h-36zm10.859375 21l-17.921875 17.917969c-2.0865914 2.086591-3.0483886 4.85123-2.9121094 7.572265 0.1193433-2.387743 1.0811065-4.741262 2.9121094-6.572265l18.921875-18.917969h-1z" style="fill:#ffffff;opacity:.2"/>
</svg>

<svg xmlns="http://www.w3.org/2000/svg" width="64" height="64" version="1.1" viewBox="0 0 48 48">
 <path d="m 10.500325,3.7499993 c -4.1549602,0 -7.4999286,3.3449684 -7.4999286,7.4999287 0,4.154961 3.3449684,7.499929 7.4999286,7.499929 h 8.894448 L 5.2035006,32.938199 c -2.9380006,2.938 -2.9380006,7.670297 0,10.608297 2.9380006,2.938003 7.6702974,2.938003 10.6082984,0 l 14.18834,-14.191272 v 8.894448 c 0,4.154961 3.344969,7.49993 7.49993,7.49993 4.15496,0 7.499929,-3.344969 7.499929,-7.49993 V 11.249928 c 0,-4.1549603 -3.344969,-7.4999287 -7.499929,-7.4999287 z" style="opacity:0.2"/>
 <path style="fill:#e7b212" d="m 10.500326,2.999999 c -4.154961,0 -7.4999294,3.3449685 -7.4999294,7.499929 0,4.15496 3.3449684,7.499929 7.4999294,7.499929 h 8.894447 L 5.2035007,32.188198 c -2.9380007,2.938001 -2.9380007,7.670298 0,10.608299 2.9380007,2.938001 7.6702973,2.938001 10.6082983,0 L 30.000141,28.605224 v 8.894448 c 0,4.154961 3.344968,7.499929 7.499929,7.499929 4.154961,0 7.499929,-3.344968 7.499929,-7.499929 V 10.499928 c 0,-4.1549605 -3.344968,-7.499929 -7.499929,-7.499929 z"/>
 <path style="opacity:0.2;fill:#ffffff" d="M 14 4 C 8.4600518 4 4 8.4600524 4 14 C 4 14.168831 4.017202 14.333271 4.0253906 14.5 C 4.285899 9.1957468 8.6288827 5 14 5 L 50 5 C 55.539948 5 60 9.4600528 60 15 L 60 14 C 60 8.4600524 55.539948 4 50 4 L 14 4 z M 24.859375 25 L 6.9375 42.917969 C 4.8509086 45.00456 3.8891114 47.769199 4.0253906 50.490234 C 4.1447339 48.102491 5.1064971 45.748972 6.9375 43.917969 L 25.859375 25 L 24.859375 25 z" transform="scale(0.74999997)"/>
</svg>
